X: 1
T: Leprechaun Step, The
M: 3/4
L: 1/8
R: mazurka
K: Edor
EB BA cB|EB BA B2|EB BA cB|1AG FG AB:|2AG FG AF||
BE EF GE|FE DE F2|EB BA cB|AG FG AF:|
